icon/cg/touchpad.svg

<svg viewBox="0 0 24 24" fill="none" xmlns="http://www.w3.org/2000/svg" height="1em" width="1em">
  <path fill-rule="evenodd" clip-rule="evenodd" d="M20 21C21.6569 21 23 19.6569 23 18V6C23 4.34315 21.6569 3 20 3H4C2.34315 3 1 4.34315 1 6V18C1 19.6569 2.34315 21 4 21H20ZM4 5H20C20.5523 5 21 5.44772 21 6V14H3V6C3 5.44772 3.44772 5 4 5ZM3 16V18C3 18.5523 3.44772 19 4 19H11V16H3ZM13 19V16H21V18C21 18.5523 20.5523 19 20 19H13Z" fill="currentColor"/>
</svg>

<svg width="24" height="24" fill="none" xmlns="http://www.w3.org/2000/svg"><path fill-rule="evenodd" clip-rule="evenodd" d="M20 21a3 3 0 0 0 3-3V6a3 3 0 0 0-3-3H4a3 3 0 0 0-3 3v12a3 3 0 0 0 3 3h16ZM4 5h16a1 1 0 0 1 1 1v8H3V6a1 1 0 0 1 1-1ZM3 16v2a1 1 0 0 0 1 1h7v-3H3Zm10 3v-3h8v2a1 1 0 0 1-1 1h-7Z" fill="currentColor"/></svg>
